packages/tokens/icons/insightPanel2/size32Px.svg

<svg viewBox="0 0 32 32" fill="none" xmlns="http://www.w3.org/2000/svg" width="1em" height="1em"><rect x="6.5" y="3.5" width="19" height="25" rx="1.5" stroke="currentColor"/><path fill-rule="evenodd" clip-rule="evenodd" d="M14.5 11C14.2239 11 14 11.2239 14 11.5C14 11.7761 14.2239 12 14.5 12H21.5C21.7761 12 22 11.7761 22 11.5C22 11.2239 21.7761 11 21.5 11H14.5ZM14.5 13C14.2239 13 14 13.2239 14 13.5C14 13.7761 14.2239 14 14.5 14H18.5C18.7761 14 19 13.7761 19 13.5C19 13.2239 18.7761 13 18.5 13H14.5Z" fill="currentColor"/><path fill-rule="evenodd" clip-rule="evenodd" d="M14.5 17C14.2239 17 14 17.2239 14 17.5C14 17.7761 14.2239 18 14.5 18H21.5C21.7761 18 22 17.7761 22 17.5C22 17.2239 21.7761 17 21.5 17H14.5ZM14.5 19C14.2239 19 14 19.2239 14 19.5C14 19.7761 14.2239 20 14.5 20H18.5C18.7761 20 19 19.7761 19 19.5C19 19.2239 18.7761 19 18.5 19H14.5Z" fill="currentColor"/><path fill-rule="evenodd" clip-rule="evenodd" d="M14.5 23C14.2239 23 14 23.2239 14 23.5C14 23.7761 14.2239 24 14.5 24H21.5C21.7761 24 22 23.7761 22 23.5C22 23.2239 21.7761 23 21.5 23H14.5ZM14.5 25C14.2239 25 14 25.2239 14 25.5C14 25.7761 14.2239 26 14.5 26H18.5C18.7761 26 19 25.7761 19 25.5C19 25.2239 18.7761 25 18.5 25H14.5Z" fill="currentColor"/><rect x="9.5" y="11.5" width="3" height="3" rx="0.5" stroke="currentColor"/><rect x="9.5" y="17.5" width="3" height="3" rx="0.5" stroke="currentColor"/><rect x="9.5" y="23.5" width="3" height="3" rx="0.5" stroke="currentColor"/><circle cx="20" cy="7" r="1.5" stroke="currentColor"/><path d="M21.8536 8.14645L21.5 7.79289L20.7929 8.5L21.1464 8.85355L21.8536 8.14645ZM22.1464 9.85355C22.3417 10.0488 22.6583 10.0488 22.8536 9.85355C23.0488 9.65829 23.0488 9.34171 22.8536 9.14645L22.1464 9.85355ZM21.1464 8.85355L22.1464 9.85355L22.8536 9.14645L21.8536 8.14645L21.1464 8.85355Z" fill="currentColor"/><line x1="9.5" y1="7.5" x2="16.5" y2="7.5" stroke="currentColor" stroke-linecap="round"/></svg>

<svg xmlns="http://www.w3.org/2000/svg" fill="none" viewBox="0 0 32 32" width="1em" height="1em"><rect width="19" height="25" x="6.5" y="3.5" stroke="currentColor" rx="1.5"/><path fill="currentColor" fill-rule="evenodd" d="M14.5 11a.5.5 0 0 0 0 1h7a.5.5 0 0 0 0-1h-7Zm0 2a.5.5 0 0 0 0 1h4a.5.5 0 0 0 0-1h-4Zm0 4a.5.5 0 0 0 0 1h7a.5.5 0 0 0 0-1h-7Zm0 2a.5.5 0 0 0 0 1h4a.5.5 0 0 0 0-1h-4Zm0 4a.5.5 0 0 0 0 1h7a.5.5 0 0 0 0-1h-7Zm0 2a.5.5 0 0 0 0 1h4a.5.5 0 0 0 0-1h-4Z" clip-rule="evenodd"/><rect width="3" height="3" x="9.5" y="11.5" stroke="currentColor" rx=".5"/><rect width="3" height="3" x="9.5" y="17.5" stroke="currentColor" rx=".5"/><rect width="3" height="3" x="9.5" y="23.5" stroke="currentColor" rx=".5"/><circle cx="20" cy="7" r="1.5" stroke="currentColor"/><path fill="currentColor" d="m21.854 8.146-.354-.353-.707.707.353.354.708-.708Zm.292 1.708a.5.5 0 0 0 .708-.708l-.708.708Zm-1-1 1 1 .708-.708-1-1-.708.708Z"/><path stroke="currentColor" stroke-linecap="round" d="M9.5 7.5h7"/></svg>
